X: 19
T:Djatchko Kolo
R:32-bar tune used for a Serbian circle dance
M:4/4
L:1/4
K:G %Transposed from D
"G"dd de|"G"de d2|"G"dg "C"fe|"G"d2 B2|
"G"dd de|"G"de d2|"G"dg "C"fe|"G"d2 B2||
"D7"dc cc|"G"dB BB|"D7"dc cc|"G"dB BB||
"G"G/2A/2B "D7"BA|"G"G/2A/2B "D7"BA|"G"G/2A/2B "D7"BA|"G"G2 "D7"D2|
"G"G/2A/2B "D7"BA|"G"G/2A/2B "D7"BA|\"G"G/2A/2B "D7"BA|"G"G2 G2|
